!!!SOCIAL_FUNCTION: songs with games
!!!SOCIAL_FUNCTION2: ball game
!!!PDT:	1943
!!!LING_GROUP: Muskogean
!!!LANG: Non-Tone
!!!REG: Southeast
!!!REG1: Specific Region: Oklahoma, California, Mississippi, Louisiana, Texas, Alabama
!!!COM: Anon.
!!!OTL: Whistle Melody
!!!ODT: <1933//
!!!MPN: Robert Henry
!!!MPN: Atobaantci [Putting it Back, Mary Hiekman]
!!!MLC: Philadelphia, Mississippi, United States of America
!! Song was recorded in January 1933.
!!!AGN: monody
!!!AMT: irregular
!!!RWG: Transcribed pitches, durations, and meters are only approximate.
**kern
*ICvox
*Imale
*clefG2
*k[b-e-]
*M3/4
*MM100
=1-
[2.ff
=2
4.ff]
24dd
24cc
24b-
16f
16r
16b-
16cc
=3
4..dd
16cc
16b-
16r
24g
24a
24g
*M3/8
=4
16f
16r
8b-
8dd;
*M4/4
=5
[2cc
8cc]
16b-
16cc
20dd
20cc
20b-
20g
20f
8g
8r
=6
2b-
4..r
*MM63
16ff
*M3/4
=7
16.dd
32cc
16b-
16r
16.dd
32cc
16b-
16r
16.dd
32cc
16b-
16r
*M3/8
=8
32.g
64a
32g
32r
8f
8b-
=9
32.g
64a
32g
32r
8f
16b-
16r
=10
4.dd
*M2/4
=11
4cc
8r
16b-
16cc
*M4/4
*MM126
=12
16dd
16cc
24b-
24g
24f
8g
8r
8b-
8r
8b-
8cc
=13
16dd
16cc
24b-
24g
24f
8g
8r
8b-
8r
8b-
8cc
*M2/4
=14
16dd
16cc
24b-
24g
24f
8g
8r
*MM100
=15
8ff
8r
8dd
8r
=16
16dd
16cc
8b-
4r
=17
16dd
16cc
8b-
16b-
16r
16b-
16cc
=18
16dd
16cc
16b-
16r
8b-
8cc
*M3/4
=19
8.dd
16c
2b-
==
*-
!!!CNT: Choctaw
!!!TXO: Choctaw
!!!OCY: United States
!!!OCL: Frances Densmore
!!!YOR: Frances Densmore, "Choctaw Music"
!!!YOR: Bulletin 136, page 130
!!!PPR: Smithsonian Institution, Bureau of American Ethnology
!!!PPR: Government Printing Office
!!!PDT: 1943
!!!PPP: Washington, DC, United States of America
!!!YEC: Electronic Copyright 2000 David Huron
!!!YER: August 2000
!!!YEN: United States of America
!!!ENC: David Huron
!!!RDT: August 27, 2000
!!!EEV: Release 1.0
!!!AIN: vox
